assets/features/payment-flow/Kasikorn Bank ธนาคารกสิกรไทย.svg

<svg width="200" height="200" viewBox="0 0 200 200" fill="none" xmlns="http://www.w3.org/2000/svg">
<rect x="0.5" y="0.5" width="199" height="199" rx="39.5" fill="white"/>
<rect x="0.5" y="0.5" width="199" height="199" rx="39.5" stroke="#8D8D8D"/>
<path d="M155.736 100.365C155.736 111.308 152.489 122.005 146.408 131.103C140.326 140.202 131.682 147.293 121.57 151.48C111.457 155.667 100.33 156.762 89.5947 154.627C78.8596 152.492 68.9988 147.222 61.2594 139.484C53.52 131.745 48.2495 121.887 46.1144 111.154C43.9793 100.421 45.0755 89.2963 49.2643 79.1863C53.4532 69.0763 60.5466 60.4353 69.6475 54.3557C78.7485 48.2762 89.4482 45.0313 100.394 45.0312C115.072 45.0322 129.148 50.8624 139.527 61.2394C149.906 71.6163 155.736 85.69 155.736 100.365Z" fill="white"/>
<path d="M128.287 129.006C125.464 127.329 122.254 126.413 118.972 126.348C115.726 126.512 112.559 127.409 109.709 128.972C106.64 130.645 103.224 131.584 99.7305 131.713C96.5543 131.571 93.4543 130.694 90.6742 129.152C87.5924 127.468 84.1604 126.524 80.6504 126.396C77.4086 126.553 74.2417 127.425 71.3767 128.95C68.2865 130.599 64.861 131.522 61.3605 131.649H60.7305C61.143 132.159 61.5592 132.661 61.9905 133.149C65.4852 132.923 68.8937 131.966 71.9955 130.34C74.6636 128.897 77.6205 128.067 80.6504 127.911C83.9375 128.042 87.1481 128.941 90.0254 130.535C93.0056 132.166 96.3213 133.088 99.7155 133.231C103.429 133.107 107.063 132.124 110.332 130.359C112.982 128.891 115.931 128.045 118.957 127.885C121.999 127.954 124.972 128.813 127.582 130.378C130.711 132.224 134.272 133.213 137.905 133.246C138.348 132.74 138.787 132.215 139.214 131.686C138.798 131.716 138.4 131.735 137.973 131.735C134.556 131.701 131.208 130.77 128.264 129.036" fill="#887369"/>
<path d="M118.971 129.214C115.726 129.377 112.561 130.274 109.713 131.838C106.642 133.507 103.227 134.443 99.734 134.575C96.5575 134.434 93.4567 133.56 90.674 132.022C87.5943 130.331 84.1616 129.383 80.6502 129.255C77.4072 129.413 74.2397 130.289 71.3765 131.82C68.7932 133.145 66.0036 134.022 63.1265 134.414C63.5577 134.871 63.9927 135.332 64.439 135.767C67.0558 135.255 69.5913 134.391 71.9765 133.199C74.6442 131.754 77.6014 130.924 80.6315 130.77C83.9189 130.898 87.1302 131.797 90.0065 133.394C92.9885 135.025 96.3074 135.945 99.7039 136.082C103.415 135.96 107.047 134.977 110.313 133.21C112.964 131.746 115.913 130.901 118.938 130.74C121.981 130.805 124.955 131.666 127.563 133.237C129.966 134.607 132.601 135.522 135.336 135.936C135.794 135.479 136.255 135.014 136.69 134.545C133.713 134.294 130.829 133.387 128.245 131.887C125.421 130.214 122.212 129.299 118.93 129.233" fill="#887369"/>
<path d="M118.972 132.075C115.729 132.234 112.563 133.123 109.713 134.677C106.643 136.349 103.227 137.287 99.7341 137.418C96.5562 137.279 93.4544 136.402 90.6741 134.857C87.5923 133.172 84.1606 132.226 80.6503 132.094C77.4073 132.252 74.2398 133.128 71.3766 134.658C69.5205 135.564 67.5832 136.292 65.5903 136.833C66.0216 137.245 66.4716 137.639 66.9216 138.048C68.6569 137.493 70.3532 136.823 71.9991 136.042C74.6668 134.597 77.624 133.767 80.6541 133.612C83.9416 133.741 87.1528 134.64 90.0291 136.237C93.0093 137.874 96.3288 138.798 99.7266 138.936C103.438 138.813 107.07 137.829 110.335 136.061C112.987 134.596 115.935 133.751 118.96 133.59C122.004 133.658 124.977 134.518 127.585 136.087C129.248 136.988 130.997 137.721 132.805 138.276L134.185 137.047C132.117 136.547 130.127 135.769 128.268 134.733C125.445 133.057 122.235 132.143 118.953 132.079" fill="#887369"/>
<path d="M118.975 134.943C115.729 135.104 112.563 136.001 109.716 137.568C106.644 139.234 103.229 140.168 99.7374 140.297C96.5605 140.158 93.4592 139.284 90.6774 137.744C87.5969 136.056 84.1641 135.113 80.6536 134.988C77.4105 135.142 74.2424 136.017 71.3799 137.549C70.2811 138.044 69.1599 138.546 68.0049 138.977C68.4549 139.352 68.9124 139.709 69.3774 140.068C70.2737 139.694 71.1436 139.319 72.0024 138.944C74.6711 137.501 77.6277 136.671 80.6574 136.514C83.9449 136.643 87.1561 137.542 90.0324 139.139C93.0129 140.775 96.3324 141.698 99.7299 141.834C103.441 141.712 107.073 140.729 110.339 138.962C112.988 137.493 115.938 136.648 118.964 136.492C122.007 136.558 124.98 137.418 127.589 138.985C128.474 139.439 129.37 139.881 130.345 140.293C130.799 139.948 131.256 139.585 131.71 139.221C130.535 138.758 129.386 138.231 128.267 137.643C125.443 135.969 122.234 135.055 118.952 134.988" fill="#887369"/>
<path d="M118.971 137.804C115.726 137.967 112.56 138.864 109.713 140.428C106.64 142.092 103.226 143.026 99.7338 143.157C96.557 143.018 93.4557 142.144 90.6738 140.604C87.5933 138.917 84.1606 137.973 80.6501 137.849C77.4073 138.005 74.2398 138.88 71.3763 140.409C71.0538 140.552 70.7313 140.702 70.4126 140.837C70.8888 141.185 71.3651 141.527 71.8451 141.842C71.8972 141.829 71.9476 141.81 71.9951 141.785C74.6638 140.343 77.6204 139.513 80.6501 139.356C83.9371 139.488 87.1476 140.386 90.0251 141.98C93.0053 143.618 96.3248 144.542 99.7226 144.68C103.434 144.554 107.065 143.57 110.331 141.804C112.983 140.34 115.932 139.497 118.956 139.337C121.999 139.401 124.972 140.258 127.581 141.823L127.915 141.988C128.395 141.669 128.86 141.343 129.333 141.009L128.264 140.477C125.44 138.803 122.231 137.889 118.949 137.822" fill="#887369"/>
<path d="M109.723 143.27C106.652 144.934 103.237 145.867 99.7447 145.995C96.5722 145.861 93.4744 144.99 90.696 143.453C87.6134 141.763 84.1782 140.817 80.6647 140.69C77.9944 140.763 75.369 141.395 72.9585 142.546C73.4835 142.891 74.0123 143.21 74.5523 143.521C76.4825 142.686 78.558 142.237 80.661 142.201C83.948 142.333 87.1586 143.232 90.036 144.826C93.0186 146.455 96.3372 147.375 99.7335 147.514C103.445 147.392 107.077 146.409 110.342 144.642C112.993 143.177 115.942 142.332 118.967 142.171C121.178 142.163 123.363 142.646 125.365 143.585C125.89 143.273 126.407 142.966 126.925 142.636C124.469 141.351 121.739 140.675 118.967 140.664C115.723 140.827 112.559 141.724 109.712 143.288" fill="#887369"/>
<path d="M100 40C88.1331 40 76.5328 43.5181 66.6658 50.1095C56.7989 56.7008 49.1085 66.0694 44.5673 77.0304C40.026 87.9914 38.8378 100.053 41.1529 111.689C43.468 123.325 49.1825 134.013 57.5736 142.403C65.9648 150.792 76.6557 156.505 88.2946 158.82C99.9335 161.134 111.997 159.946 122.961 155.406C133.925 150.866 143.295 143.177 149.888 133.313C156.481 123.448 160 111.85 160 99.9861C160 84.0768 153.679 68.8191 142.426 57.5695C131.174 46.3199 115.913 40 100 40ZM100 150.412C90.0261 150.413 80.2759 147.456 71.9824 141.917C63.6889 136.378 57.2245 128.504 53.4068 119.292C49.5891 110.08 48.5894 99.9428 50.5343 90.1625C52.4791 80.3823 57.281 71.3982 64.3329 64.3464C71.3847 57.2946 80.3698 52.4918 90.1519 50.5452C99.934 48.5987 110.074 49.5959 119.289 53.4106C128.504 57.2254 136.381 63.6865 141.923 71.9768C147.466 80.2672 150.425 90.0145 150.426 99.9861C150.428 106.608 149.125 113.164 146.591 119.282C144.058 125.4 140.343 130.959 135.661 135.642C130.978 140.324 125.419 144.039 119.3 146.573C113.181 149.108 106.623 150.412 100 150.412Z" fill="#E71618"/>
<path d="M128.395 85.1221C127.781 86.9809 126.617 88.6098 125.057 89.7935C122.717 91.6681 107.2 101.168 105.437 103.354C103.927 105.691 103.212 108.452 103.397 111.227V129.467H105.816V124.739C105.989 122.424 106.99 120.248 108.636 118.609C113.558 114.583 118.735 110.88 124.135 107.523C125.695 106.286 126.912 104.669 127.668 102.827C128.424 100.985 128.693 98.9794 128.451 97.0031V84.541L128.395 85.1221Z" fill="#009B3B"/>
<path d="M103.416 102.236C105.13 100.077 121.142 90.3101 123.437 88.443C124.824 87.4996 125.988 86.2652 126.848 84.8257C127.708 83.3862 128.244 81.7764 128.417 80.1087V59.6797C128.11 62.6189 126.81 65.3656 124.731 67.4666C122.38 70.5484 111.606 76.3746 106.285 80.1124C104.129 81.3075 102.329 83.0542 101.071 85.1736C99.812 87.2929 99.1396 89.7087 99.1223 92.1734V129.489H101.511V110.012C101.277 107.287 101.948 104.56 103.42 102.255" fill="#009B3B"/>
<path d="M91.2584 81.1127C85.6873 76.9551 80.3481 72.4957 75.2646 67.7546C73.2049 65.585 71.8913 62.8151 71.5146 59.8477V78.822C71.6013 81.0049 72.1908 83.1383 73.2374 85.056C74.284 86.9737 75.7593 88.624 77.5484 89.8782C82.2809 93.3349 88.9521 98.3587 90.9509 100.376C93.6251 103.321 95.0222 107.207 94.8359 111.181V129.488H97.1984V92.9862C97.4841 90.6426 97.0732 88.2668 96.0168 86.1552C94.9604 84.0436 93.3054 82.2898 91.2584 81.1127Z" fill="#009B3B"/>
</svg>

<svg xmlns="http://www.w3.org/2000/svg" width="200" height="200" fill="none" viewBox="0 0 200 200"><rect width="199" height="199" x=".5" y=".5" fill="#fff" rx="39.5"/><rect width="199" height="199" x=".5" y=".5" stroke="#8d8d8d" rx="39.5"/><path fill="#fff" d="M155.736 100.365a55.3 55.3 0 0 1-9.328 30.738 55.34 55.34 0 0 1-56.813 23.524 55.33 55.33 0 0 1-43.48-43.473 55.32 55.32 0 0 1 23.532-56.798 55.35 55.35 0 0 1 69.88 6.883 55.33 55.33 0 0 1 16.209 39.126"/><path fill="#887369" d="M128.287 129.006a19 19 0 0 0-9.315-2.658 21.5 21.5 0 0 0-9.263 2.624 22.6 22.6 0 0 1-9.978 2.741 20.6 20.6 0 0 1-9.057-2.561 22.6 22.6 0 0 0-10.024-2.756 22 22 0 0 0-9.273 2.554 23.05 23.05 0 0 1-10.016 2.699h-.63c.412.51.828 1.012 1.26 1.5a25 25 0 0 0 10.005-2.809 20.4 20.4 0 0 1 8.654-2.429 21.1 21.1 0 0 1 9.375 2.624 22.1 22.1 0 0 0 9.69 2.696 24 24 0 0 0 10.617-2.872 20 20 0 0 1 8.625-2.474c3.042.069 6.015.928 8.625 2.493a20.7 20.7 0 0 0 10.323 2.868c.443-.506.882-1.031 1.309-1.56-.416.03-.814.049-1.241.049a19.5 19.5 0 0 1-9.709-2.699"/><path fill="#887369" d="M118.971 129.214a21.5 21.5 0 0 0-9.258 2.624 22.7 22.7 0 0 1-9.979 2.737 20.6 20.6 0 0 1-9.06-2.553 22.5 22.5 0 0 0-10.024-2.767 21.9 21.9 0 0 0-9.274 2.565 25.7 25.7 0 0 1-8.25 2.594c.432.457.867.918 1.313 1.353a29.6 29.6 0 0 0 7.538-2.568 20.34 20.34 0 0 1 8.654-2.429 21 21 0 0 1 9.376 2.624 22.06 22.06 0 0 0 9.697 2.688 23.95 23.95 0 0 0 10.609-2.872 20.05 20.05 0 0 1 8.625-2.47c3.043.065 6.017.926 8.625 2.497a22.5 22.5 0 0 0 7.773 2.699c.458-.457.919-.922 1.354-1.391a20.2 20.2 0 0 1-8.445-2.658 19 19 0 0 0-9.315-2.654"/><path fill="#887369" d="M118.972 132.075a21.55 21.55 0 0 0-9.259 2.602 22.64 22.64 0 0 1-9.979 2.741 20.5 20.5 0 0 1-9.06-2.561 22.7 22.7 0 0 0-10.024-2.763 21.9 21.9 0 0 0-9.273 2.564 33 33 0 0 1-5.787 2.175c.432.412.882.806 1.332 1.215a41 41 0 0 0 5.077-2.006 20.36 20.36 0 0 1 8.655-2.43 21 21 0 0 1 9.375 2.625 22 22 0 0 0 9.698 2.699 23.94 23.94 0 0 0 10.608-2.875 20 20 0 0 1 8.625-2.471c3.044.068 6.017.928 8.625 2.497a28.5 28.5 0 0 0 5.22 2.189l1.38-1.229a23.5 23.5 0 0 1-5.917-2.314 19 19 0 0 0-9.315-2.654"/><path fill="#887369" d="M118.975 134.943a21.4 21.4 0 0 0-9.259 2.625 22.7 22.7 0 0 1-9.979 2.729 20.56 20.56 0 0 1-9.06-2.553 22.5 22.5 0 0 0-10.023-2.756 21.85 21.85 0 0 0-9.274 2.561c-1.099.495-2.22.997-3.375 1.428.45.375.907.732 1.372 1.091a173 173 0 0 0 2.625-1.124 20.4 20.4 0 0 1 8.655-2.43 21 21 0 0 1 9.375 2.625 22 22 0 0 0 9.698 2.695 23.95 23.95 0 0 0 10.609-2.872 19.9 19.9 0 0 1 8.625-2.47c3.043.066 6.016.926 8.625 2.493.885.454 1.781.896 2.756 1.308a67 67 0 0 0 1.365-1.072 35 35 0 0 1-3.443-1.578 19 19 0 0 0-9.315-2.655"/><path fill="#887369" d="M118.971 137.804a21.5 21.5 0 0 0-9.258 2.624 22.75 22.75 0 0 1-9.98 2.729 20.56 20.56 0 0 1-9.06-2.553 22.5 22.5 0 0 0-10.023-2.755 21.9 21.9 0 0 0-9.274 2.56c-.322.143-.645.293-.963.428.476.348.952.69 1.432 1.005a.7.7 0 0 0 .15-.057 20.4 20.4 0 0 1 8.655-2.429 21.1 21.1 0 0 1 9.375 2.624 22 22 0 0 0 9.698 2.7 24 24 0 0 0 10.608-2.876 20 20 0 0 1 8.625-2.467c3.043.064 6.016.921 8.625 2.486l.334.165c.48-.319.945-.645 1.418-.979l-1.069-.532a19 19 0 0 0-9.315-2.655"/><path fill="#887369" d="M109.723 143.27a22.7 22.7 0 0 1-9.978 2.725 20.5 20.5 0 0 1-9.049-2.542 22.56 22.56 0 0 0-10.031-2.763c-2.67.073-5.296.705-7.707 1.856a32 32 0 0 0 1.594.975 16.1 16.1 0 0 1 6.109-1.32 21.1 21.1 0 0 1 9.375 2.625 22.1 22.1 0 0 0 9.698 2.688 23.94 23.94 0 0 0 10.608-2.872 20 20 0 0 1 8.625-2.471 14.9 14.9 0 0 1 6.398 1.414c.525-.312 1.042-.619 1.56-.949a17.3 17.3 0 0 0-7.958-1.972 21.46 21.46 0 0 0-9.255 2.624"/><path fill="#e71618" d="M100 40a60 60 0 0 0-33.334 10.11 59.974 59.974 0 0 0-9.092 92.294 60.01 60.01 0 0 0 92.314-9.091 59.98 59.98 0 0 0-7.462-75.743A60 60 0 0 0 100 40m0 110.412a50.44 50.44 0 0 1-46.593-31.12 50.41 50.41 0 0 1 10.926-54.946 50.43 50.43 0 0 1 54.956-10.935 50.43 50.43 0 0 1 31.137 46.575A50.42 50.42 0 0 1 100 150.412"/><path fill="#009b3b" d="M128.395 85.122a9.67 9.67 0 0 1-3.338 4.671c-2.34 1.875-17.857 11.375-19.62 13.561a12.92 12.92 0 0 0-2.04 7.873v18.24h2.419v-4.728a9.67 9.67 0 0 1 2.82-6.13 147 147 0 0 1 15.499-11.086 11.62 11.62 0 0 0 4.316-10.52V84.541z"/><path fill="#009b3b" d="M103.416 102.236c1.714-2.159 17.726-11.926 20.021-13.793a11.52 11.52 0 0 0 4.98-8.334v-20.43a13 13 0 0 1-3.686 7.788c-2.351 3.081-13.125 8.908-18.446 12.645a13.9 13.9 0 0 0-7.163 12.061v37.316h2.389v-19.477a12.44 12.44 0 0 1 1.909-7.757M91.258 81.113a191 191 0 0 1-15.993-13.358 14.06 14.06 0 0 1-3.75-7.907v18.974a14.19 14.19 0 0 0 6.033 11.056c4.733 3.457 11.404 8.48 13.403 10.498a15.03 15.03 0 0 1 3.885 10.805v18.307h2.362V92.986a12.02 12.02 0 0 0-5.94-11.873"/></svg>
